src/normal/image.svg

<!-- Generated by IcoMoon.io -->
<svg version="1.1" xmlns="http://www.w3.org/2000/svg" width="24" height="24" viewBox="0 0 24 24">
<title>image</title>
<path d="M0 3v18h24v-18h-24zM22 19h-20v-14h20v14zM14.5 12.444c1.103 0 2-0.896 2-2s-0.897-2-2-2-2 0.896-2 2 0.897 2 2 2zM13.5 9.444h2v2h-2v-2zM21 6h-18v12h18v-12zM4 12.965l6.049 1.728-6.049 1.068v-2.796zM20 17h-16v-0.225l16-2.823v3.048zM20 12.952l-8 1.492-8-2.479v-4.965h16v5.952z"></path>
</svg>

<svg xmlns="http://www.w3.org/2000/svg" width="24" height="24"><path d="M0 3v18h24V3H0zm22 16H2V5h20v14zm-7.5-6.556c1.103 0 2-.896 2-2s-.897-2-2-2-2 .896-2 2 .897 2 2 2zm-1-3h2v2h-2v-2zM21 6H3v12h18V6zM4 12.965l6.049 1.728L4 15.761v-2.796zM20 17H4v-.225l16-2.823V17zm0-4.048l-8 1.492-8-2.479V7h16v5.952z"/></svg>
